src/images_karasa_jaga_svg/cmd/lc_strikeout.svg

<svg height="24" width="24" xmlns="http://www.w3.org/2000/svg" xmlns:xlink="http://www.w3.org/1999/xlink"><linearGradient id="a" gradientUnits="userSpaceOnUse" x1="74.32776" x2="78.138741" y1="108.931477" y2="21.278833"><stop offset="0" stop-color="#555"/><stop offset="1"/></linearGradient><linearGradient id="b" gradientUnits="userSpaceOnUse" x1="-96.822324" x2="101.524494" y1="-800.615054" y2="-638.331294"><stop offset="0" stop-color="#3b3e22"/><stop offset="1" stop-color="#454545" stop-opacity="0"/></linearGradient><g transform="matrix(.171875 0 0 .171875 1 1)"><path d="m54.892799 3.2812959v-2.79470843z" fill="#fff" fill-opacity=".756881"/><rect fill="#010101" height="5.8181" rx="1.78422" ry="1.14751" stroke-width=".707107" width="104.7258" x="11.6362" y="58.1828"/><g stroke-width="3.168787"><path d="m60.998047 17.982422c-6.224607 0-11.647491 2.134042-16.271485 6.402344-4.53507 4.179378-6.802734 9.648105-6.802734 16.40625 0 4.309618 1.06998 8.164599 3.191406 11.574218h20.759766c-3.418069-2.260968-6.068779-4.386129-7.945312-6.373046-3.023381-3.201227-4.535157-6.579801-4.535157-10.136719 0-3.645841 1.288422-6.62355 3.867188-8.935547 2.578765-2.311997 5.91345-3.46875 10.003906-3.46875 5.335377 0 10.181838 1.866798 14.539063 5.601562 4.446147 3.734764 7.736942 9.514624 9.871093 17.339844h3.333985l-2.933594-28.410156h-2.800781c-.533538 3.02338-1.957535 4.535156-4.269532 4.535156-.889229 0-3.511916-.755888-7.86914-2.267578-4.357225-1.51169-8.403908-2.267578-12.138672-2.267578zm2.876953 51.835937c.508359.282536 1.017031.570343 1.525391.851563 4.179378 2.311997 7.737417 5.112194 10.671875 8.402344 2.934457 3.201226 4.40039 6.890933 4.40039 11.070312 0 4.446148-1.511776 8.091966-4.535156 10.937502-3.02338 2.75661-6.980331 4.13476-11.871094 4.13476-5.957838 0-11.115431-1.91068-15.472656-5.734371-4.357225-3.823687-8.180554-9.781058-11.470703-17.873047h-3.068359l4.001953 28.277348h2.933593c.08892-1.24493.489789-2.26806 1.201172-3.06836.711384-.88923 1.557004-1.33399 2.535156-1.33399 1.067076 0 3.867274.75589 8.402344 2.26758 4.623994 1.51169 9.159321 2.26758 13.605469 2.26758 7.647374 0 14.09339-2.31156 19.339844-6.93555 5.246454-4.712915 7.871094-10.492775 7.871093-17.339842 0-5.513224-1.95653-10.537196-5.86914-15.072266-.239792-.283391-.517229-.567838-.775391-.851563z" fill="url(#a)"/><path d="m59.152344 21.017578c-4.734111.371248-8.801968 2.092292-12.47461 5.482422-3.966671 3.655559-5.876953 8.176621-5.876953 14.291016 0 4.508634 1.244305 8.240828 3.798828 11.574218h12.267579c-1.975924-1.486527-3.660008-2.946648-5.029297-4.396484-3.38858-3.587908-5.320313-7.740946-5.320313-12.113281 0-4.323837 1.6838-8.264329 4.822266-11.078125 2.172343-1.947619 4.849524-3.1651 7.8125-3.759766zm26.595703 2.44336c-1.242733 1.236594-3.020109 1.933593-4.742188 1.933593-1.260032 0-2.037048-.27585-3.43164-.677734-.402393-.115959-1.085205-.358169-1.552735-.503906 1.2566.76703 2.473746 1.645616 3.640625 2.644531 3.049073 2.563216 5.484533 5.997576 7.476563 10.064453z" fill="url(#b)"/></g></g></svg>

<?xml version="1.0" encoding="UTF-8" standalone="no"?>
<svg
   xmlns:dc="http://purl.org/dc/elements/1.1/"
   xmlns:cc="http://creativecommons.org/ns#"
   xmlns:rdf="http://www.w3.org/1999/02/22-rdf-syntax-ns#"
   xmlns:svg="http://www.w3.org/2000/svg"
   xmlns="http://www.w3.org/2000/svg"
   xmlns:xlink="http://www.w3.org/1999/xlink"
   xmlns:sodipodi="http://sodipodi.sourceforge.net/DTD/sodipodi-0.dtd"
   xmlns:inkscape="http://www.inkscape.org/namespaces/inkscape"
   height="128"
   width="128"
   version="1.1"
   id="svg21"
   sodipodi:docname="lc_strikeout.svg"
   inkscape:export-filename="/home/rizmut/Dokumen/Rizmut/Github/libreoffice-style-karasa-jaga/build/images_karasa_jaga/cmd/lc_strikeout.png"
   inkscape:export-xdpi="16.5"
   inkscape:export-ydpi="16.5"
   inkscape:version="0.92.2 (unknown)">
  <metadata
     id="metadata27">
    <rdf:RDF>
      <cc:Work
         rdf:about="">
        <dc:format>image/svg+xml</dc:format>
        <dc:type
           rdf:resource="http://purl.org/dc/dcmitype/StillImage" />
        <dc:title></dc:title>
      </cc:Work>
    </rdf:RDF>
  </metadata>
  <defs
     id="defs25">
    <linearGradient
       id="a-8"
       gradientUnits="userSpaceOnUse"
       x1="15.70367"
       x2="16.933331"
       y1="294.8226"
       y2="266.54037"
       gradientTransform="matrix(3.0992126,0,0,3.0992126,25.658748,-804.78644)">
      <stop
         offset="0"
         stop-color="#555"
         id="stop2-9" />
      <stop
         offset="1"
         id="stop4-0" />
    </linearGradient>
    <linearGradient
       id="b-2"
       gradientUnits="userSpaceOnUse"
       x1="15.703671"
       x2="16.933332"
       y1="262.85138"
       y2="288.67429"
       gradientTransform="matrix(3.0992126,0,0,3.0992126,-150.91691,-836.68369)">
      <stop
         offset="0"
         stop-color="#3b3e22"
         id="stop7" />
      <stop
         offset="1"
         stop-color="#454545"
         stop-opacity="0"
         id="stop9" />
    </linearGradient>
    <linearGradient
       inkscape:collect="always"
       xlink:href="#b-2"
       id="linearGradient2166"
       x1="17.4543"
       y1="11.638"
       x2="81.4534"
       y2="64.0009"
       gradientUnits="userSpaceOnUse" />
  </defs>
  <sodipodi:namedview
     pagecolor="#ffffff"
     bordercolor="#666666"
     borderopacity="1"
     objecttolerance="10"
     gridtolerance="10"
     guidetolerance="10"
     inkscape:pageopacity="0"
     inkscape:pageshadow="2"
     inkscape:window-width="1366"
     inkscape:window-height="706"
     id="namedview23"
     showgrid="true"
     inkscape:zoom="3.6875"
     inkscape:cx="46.382247"
     inkscape:cy="50.046502"
     inkscape:window-x="0"
     inkscape:window-y="0"
     inkscape:window-maximized="1"
     inkscape:current-layer="svg21"
     inkscape:snap-global="true">
    <inkscape:grid
       type="xygrid"
       id="grid837"
       spacingx="5.8181"
       spacingy="5.8181"
       empspacing="1" />
  </sodipodi:namedview>
  <linearGradient
     id="a">
    <stop
       offset="0"
       stop-color="#1c1c1c"
       id="stop2" />
    <stop
       offset=".5"
       stop-color="#888"
       id="stop4" />
    <stop
       offset="1"
       id="stop6" />
  </linearGradient>
  <linearGradient
     id="b"
     gradientUnits="userSpaceOnUse"
     x1="-192.86826546846"
     x2="-199.26656152752"
     xlink:href="#a"
     y1="109.4493765047"
     y2="-18.51654357678" />
  <linearGradient
     id="c"
     gradientUnits="userSpaceOnUse"
     x1="69.8172"
     x2="69.8172"
     xlink:href="#a"
     y1="110.5457"
     y2="-5.8163"
     gradientTransform="translate(2.000016,-0.002625)" />
  <path
     d="m54.892799 3.2812959v-2.79470843z"
     fill="#fff"
     fill-opacity=".756881"
     id="path11" />
  <rect
     height="5.8180995"
     rx="1.78422"
     ry="1.1475101"
     width="104.7258"
     x="11.6362"
     y="58.1828"
     id="rect19"
     style="fill:#010101;stroke-width:0.70710677" />
  <path
     style="font-size:126.75152588px;font-family:sans-serif;letter-spacing:0;word-spacing:0;fill:url(#a-8);stroke-width:3.16878676"
     d="M 60.998047 17.982422 C 54.77344 17.982422 49.350556 20.116464 44.726562 24.384766 C 40.191492 28.564144 37.923828 34.032871 37.923828 40.791016 C 37.923828 45.100634 38.993808 48.955615 41.115234 52.365234 L 61.875 52.365234 C 58.456931 50.104266 55.806221 47.979105 53.929688 45.992188 C 50.906307 42.790961 49.394531 39.412387 49.394531 35.855469 C 49.394531 32.209628 50.682953 29.231919 53.261719 26.919922 C 55.840484 24.607925 59.175169 23.451172 63.265625 23.451172 C 68.601002 23.451172 73.447463 25.31797 77.804688 29.052734 C 82.250835 32.787498 85.54163 38.567358 87.675781 46.392578 L 91.009766 46.392578 L 88.076172 17.982422 L 85.275391 17.982422 C 84.741853 21.005802 83.317856 22.517578 81.005859 22.517578 C 80.11663 22.517578 77.493943 21.76169 73.136719 20.25 C 68.779494 18.73831 64.732811 17.982422 60.998047 17.982422 z M 63.875 69.818359 C 64.383359 70.100895 64.892031 70.388702 65.400391 70.669922 C 69.579769 72.981919 73.137808 75.782116 76.072266 79.072266 C 79.006723 82.273492 80.472656 85.963199 80.472656 90.142578 C 80.472656 94.588726 78.96088 98.234544 75.9375 101.08008 C 72.91412 103.83669 68.957169 105.21484 64.066406 105.21484 C 58.108568 105.21484 52.950975 103.30416 48.59375 99.480469 C 44.236525 95.656782 40.413196 89.699411 37.123047 81.607422 L 34.054688 81.607422 L 38.056641 109.88477 L 40.990234 109.88477 C 41.079157 108.63984 41.480023 107.61671 42.191406 106.81641 C 42.90279 105.92718 43.74841 105.48242 44.726562 105.48242 C 45.793638 105.48242 48.593836 106.23831 53.128906 107.75 C 57.7529 109.26169 62.288227 110.01758 66.734375 110.01758 C 74.381749 110.01758 80.827765 107.70602 86.074219 103.08203 C 91.320673 98.369115 93.945313 92.589255 93.945312 85.742188 C 93.945312 80.228964 91.988782 75.204992 88.076172 70.669922 C 87.83638 70.386531 87.558943 70.102084 87.300781 69.818359 L 63.875 69.818359 z "
     id="text14" />
  <path
     style="font-size:126.75152588px;font-family:sans-serif;letter-spacing:0;word-spacing:0;fill:url(#linearGradient2166);stroke-width:3.16878676;fill-opacity:1"
     d="M 59.152344 21.017578 C 54.418233 21.388826 50.350376 23.10987 46.677734 26.5 C 42.711063 30.155559 40.800781 34.676621 40.800781 40.791016 C 40.800781 45.29965 42.045086 49.031844 44.599609 52.365234 L 56.867188 52.365234 C 54.891264 50.878707 53.20718 49.418586 51.837891 47.96875 C 48.449311 44.380842 46.517578 40.227804 46.517578 35.855469 C 46.517578 31.531632 48.201378 27.59114 51.339844 24.777344 C 53.512187 22.829725 56.189368 21.612244 59.152344 21.017578 z M 85.748047 23.460938 C 84.505314 24.697532 82.727938 25.394531 81.005859 25.394531 C 79.745827 25.394531 78.968811 25.118681 77.574219 24.716797 C 77.171826 24.600838 76.489014 24.358628 76.021484 24.212891 C 77.278084 24.979921 78.49523 25.858507 79.662109 26.857422 C 82.711182 29.420638 85.146642 32.854998 87.138672 36.921875 L 85.748047 23.460938 z "
     id="text2153" />
</svg>
